packages/icons/svg/Outline/bookmark.svg

<svg width="24" height="24" viewBox="0 0 24 24" fill="none" xmlns="http://www.w3.org/2000/svg">
<g id="Icon/Outline/bookmark">
<path id="Mask" fill-rule="evenodd" clip-rule="evenodd" d="M11.8212 15.5059C11.9902 15.5059 12.1602 15.5489 12.3132 15.6349L17.0002 18.2859V5.33388C17.0002 5.13288 16.8792 4.99988 16.8002 4.99988H7.20024C7.12024 4.99988 7.00024 5.13288 7.00024 5.33388V18.2339L11.3062 15.6489C11.4652 15.5539 11.6432 15.5059 11.8212 15.5059ZM6.00024 20.9999C5.83024 20.9999 5.66024 20.9569 5.50724 20.8699C5.19424 20.6929 5.00024 20.3599 5.00024 19.9999V5.33388C5.00024 4.04688 5.98724 2.99988 7.20024 2.99988H16.8002C18.0132 2.99988 19.0002 4.04688 19.0002 5.33388V19.9999C19.0002 20.3559 18.8112 20.6849 18.5042 20.8639C18.1962 21.0439 17.8182 21.0469 17.5082 20.8709L11.8362 17.6629L6.51424 20.8579C6.35624 20.9519 6.17824 20.9999 6.00024 20.9999Z" fill="#000000"/>
</g>
</svg>

<svg fill="none" height="24" viewBox="0 0 24 24" width="24" xmlns="http://www.w3.org/2000/svg"><path clip-rule="evenodd" d="m11.8213 15.5061c.169 0 .339.043.492.129l4.687 2.651v-12.95203c0-.201-.121-.334-.2-.334h-9.59998c-.08 0-.2.133-.2.334v12.90003l4.30598-2.585c.159-.095.337-.143.515-.143zm-5.82099 5.4939c-.17 0-.34-.043-.493-.13-.313-.177-.507-.51-.507-.87v-14.666c0-1.287.987-2.334 2.19999-2.334h9.6c1.213 0 2.2 1.047 2.2 2.334v14.666c0 .356-.189.685-.496.864-.308.18-.686.183-.996.007l-5.672-3.208-5.322 3.195c-.15799.094-.33599.142-.51399.142z" fill="#6b7280" fill-rule="evenodd"/></svg>
